X: 32
T: Duck Dance Song (b)
C: Anon.
%%abc-version 2.0
%%abcx-abcm2ps-target-version 5.9.1 (29 Sep 2008)
%%abc-creator hum2abc beta
%%abcx-conversion-date 2020/08/10 20:56:09
%%abc-copyright Electronic Copyright 2000 David Huron
%%abc-edited-by David Huron
%%abcx-initial-encoding-date August 28, 2000
%%humdrum-veritas 1662908574
%%humdrum-veritas-data 570938784
%%linebreak <none>
%%barnumbers 0
L: 1/8
M: 2/4
Q: 1/4=132
K: G clef=bass
A, A,A,2 | 
G,2G,2 | 
A,2G, E, | 
E,2E,2 | 
A, A,A,2 | 
G,2A,2 | 
A,2G, E, | 
D,2D, z | 
A, A,A,2 | 
G,2G,2 | 
A,2G, E, | 
E,2E,2 | 
A, A,A,2 | 
G,2G,2 | 
A,2G, E, | 
D,2D, z | 
B, B,B,2 | 
A,2B,2 | 
A,2G, E, | 
E,2E, z | 
A, A,A,2 | 
G,2G,2 | 
A,2G, E, | 
D,2D, z | 
A, A,A,2 | 
G,2G,2 | 
A,2G, E, | 
E,2E, z | 
A, A,A,2 | 
G,2G,2 | 
A,2G, E, | 
D,2D, z | 
B, B,B,2 | 
A,2B,2 | 
A,2G, E, | 
E,2E, z | 
A, A,A,2 | 
G,2A,2 | 
A,2G, E, | 
D,2D, z ]|:  
A, A,A,2 [I:setbarnb 42]| 
G,2G,2 | 
A2G, E, | 
E,2E, z | 
A, A,A,2 | 
G,2A,2 | 
A,2G, E, | 
D,2D, z :|]  
B, B,B,2 [I:setbarnb 50]| 
A,2B,2 | 
A,2G, E, | 
E,2E, z | 
A, A,A,2 | 
G,2G,2 | 
A,2E, E,[M:3/4] | 
D,2D,2D, z |]  


